icons/svg/spotlight-beam.svg

﻿<?xml version="1.0" encoding="utf-8"?>
<!DOCTYPE svg PUBLIC "-//W3C//DTD SVG 1.1//EN" "http://www.w3.org/Graphics/SVG/1.1/DTD/svg11.dtd">
<svg xmlns="http://www.w3.org/2000/svg" xmlns:xlink="http://www.w3.org/1999/xlink" version="1.1" baseProfile="full" width="24" height="24" viewBox="0 0 24.00 24.00" enable-background="new 0 0 24.00 24.00" xml:space="preserve">
	<path fill="#000000" fill-opacity="1" stroke-linejoin="round" d="M 9,16.5L 9.91421,15.5858L 15.1271,20.7987L 14.2129,21.7129L 9,16.5 Z M 15.5,10L 16.4142,9.08579L 21.6271,14.2987L 20.7129,15.2129L 15.5,10 Z M 6.72183,2.72185L 10.1464,6.14645L 6.14644,10.1465L 2.72183,6.72185C 1.94078,5.94081 1.94078,4.67448 2.72183,3.89343L 3.8934,2.72185C 4.67445,1.9408 5.94078,1.9408 6.72183,2.72185 Z M 14.5711,7.50001L 15.2782,8.20711L 8.2071,15.2782L 7.5,14.5711L 6.63943,11.0677L 11.0677,6.63944L 14.5711,7.50001 Z "/>
</svg>

<svg xmlns="http://www.w3.org/2000/svg" version="1.1" baseProfile="full" width="24" height="24" viewBox="0 0 24.00 24.00" xml:space="preserve"><path fill="#000" fill-opacity="1" stroke-linejoin="round" d="M9 16.5l.914-.914 5.213 5.213-.914.913L9 16.5zm6.5-6.5l.914-.914 5.213 5.213-.914.913L15.5 10zM6.722 2.722l3.424 3.424-4 4-3.424-3.424c-.78-.78-.78-2.048 0-2.83l1.17-1.17c.782-.78 2.05-.78 2.83 0zm7.85 4.778l.706.707-7.07 7.07-.708-.706-.86-3.502 4.428-4.43 3.503.862z"/></svg>
